icons/2_Variations/Crowdin bg.var.svg

<svg width="1024" height="1024" viewBox="0 0 1024 1024" fill="none" xmlns="http://www.w3.org/2000/svg">
<g clip-path="url(#clip0_3_47)">
<path d="M512 1024C794.77 1024 1024 794.77 1024 512C1024 229.23 794.77 0 512 0C229.23 0 0 229.23 0 512C0 794.77 229.23 1024 512 1024Z" fill="#98DC9A"/>
<path d="M781.8 444.89C764.09 441.41 736.11 438.45 705.32 438.45C636.41 438.45 553.81 453.23 542.82 510.15C542.42 512.29 541.6 523.08 541.37 525.15C547.65 526.15 552.28 526.92 555.86 527.45C555.457 530.3 555.226 533.172 555.17 536.05C555.08 541.3 555.17 546.24 555.44 550.93C551.01 550.35 546.44 549.71 541.87 549.02C547.42 607.9 579.81 624.72 613.7 625.46H616.08C637.49 625.46 659.27 619.29 675.08 613.46C675.615 613.275 676.062 612.897 676.332 612.4C676.603 611.902 676.678 611.322 676.543 610.772C676.407 610.223 676.072 609.743 675.601 609.429C675.131 609.114 674.56 608.986 674 609.07C642.79 613.3 594.21 607.98 605 529.69C614 464.91 737.7 451.97 781.43 449.41C782.001 449.403 782.548 449.183 782.963 448.792C783.379 448.402 783.634 447.87 783.676 447.301C783.719 446.732 783.547 446.168 783.194 445.72C782.841 445.272 782.333 444.972 781.77 444.88L781.8 444.89ZM620.31 617C618.9 617.05 617.47 617.08 616.08 617.08C579.39 617.08 558.29 598.08 551.68 559.01C562.549 560.579 573.489 561.6 584.46 562.07C589 594.13 604.24 609.7 620.31 617ZM588.88 508C588.06 511.14 586.73 516.8 585.63 521.79C578.16 521.02 574.25 520.79 570.95 520.61C564.082 520.22 557.245 519.399 550.48 518.15C550.72 515.46 550.99 512.61 551.13 511.82C559.95 466.22 636.04 448.4 676.72 448.4C638.12 457.41 597.53 474.92 588.88 507.94V508ZM786 398.17C760.2 392.17 713.55 386.61 661.8 386.61C557.53 386.61 432.48 409.07 415.8 495.17C415.21 498.42 413.91 514.74 413.6 517.91C423.14 519.25 429.73 520.17 435.36 520.84C434.872 524.612 434.585 528.407 434.5 532.21C434.34 541 434.5 549.21 435.05 556.95C428.35 556.05 421.477 555.067 414.43 554C423.03 645.38 474.13 670 526.63 670C535.241 669.963 543.839 669.358 552.37 668.19C582.16 665.09 611 654.75 629.8 646.69C630.315 646.466 630.73 646.06 630.964 645.55C631.198 645.04 631.236 644.461 631.07 643.925C630.904 643.388 630.546 642.932 630.064 642.643C629.583 642.355 629.012 642.254 628.46 642.36C584 651.1 491.87 654 510.07 522.65C524.26 420.06 728.73 404.91 785.57 402.65C786.139 402.654 786.689 402.445 787.112 402.064C787.534 401.683 787.799 401.157 787.855 400.591C787.91 400.025 787.751 399.458 787.41 399.003C787.069 398.547 786.569 398.236 786.01 398.13L786 398.17ZM553.94 659.47C544.9 660.835 535.773 661.54 526.63 661.58C467.7 661.58 433.26 628.76 424.1 564C443.517 566.947 463.085 568.787 482.71 569.51C490.1 630.39 521.82 652.92 553.94 659.47ZM489.82 492.91C488.34 498.59 485.82 509.27 484.08 517.41C469.89 515.84 461.08 514.98 453.78 514.27C443.23 513.27 436.73 512.6 422.78 510.65C423.24 505.38 423.88 498.33 424.12 496.77C441.88 405 596.29 395.05 661.85 395.05C666.897 395.05 671.85 395.1 676.71 395.2C596.79 402.72 507.24 426.34 489.82 492.91ZM265.49 447.58C265.54 447.32 265.59 447.07 265.65 446.83L265.57 447.18C265.581 447.318 265.553 447.456 265.49 447.58ZM265.49 447.58L265.41 447.97C265.427 447.849 265.451 447.729 265.48 447.61L265.49 447.58ZM263.77 456.51C263.42 458.42 263.07 460.35 262.77 462.22C263.06 460.35 263.41 458.41 263.76 456.53L263.77 456.51ZM264.04 455.07C264.38 453.27 264.7 451.52 265.04 450.02C264.69 451.56 264.37 453.29 264 455.09L264.04 455.07ZM263.77 456.53C263.42 458.41 263.07 460.35 262.77 462.24C263.06 460.38 263.41 458.44 263.76 456.56L263.77 456.53ZM265 450C264.69 451.51 264.37 453.25 264 455.05C264.37 453.29 264.69 451.56 265 450ZM818.8 351.4C771.75 333.33 656.31 309 541.85 309C413.94 309 287.13 339.35 258 442.45C256.66 447.21 252.62 471.68 251.63 476.4C265.49 479.96 275.34 482.4 283.06 484.22C282.12 488.98 281.3 493.82 280.75 498.84C279.22 512.91 278.38 526.05 278.06 538.5C268.127 536.167 258.02 533.667 247.74 531C247.74 685.31 335.74 722.93 421.45 722.93C433.663 722.911 445.865 722.216 458 720.85C496.42 716.62 533.92 705.85 557.35 698C557.892 697.825 558.349 697.454 558.63 696.96C558.912 696.465 558.999 695.883 558.874 695.328C558.749 694.773 558.42 694.285 557.953 693.959C557.486 693.634 556.914 693.495 556.35 693.57C494.53 701.2 345.6 699.63 392.17 495.09C428.17 337.09 747.7 350.85 817.82 355.81C818.372 355.862 818.923 355.711 819.371 355.386C819.82 355.061 820.135 354.584 820.257 354.044C820.38 353.504 820.301 352.938 820.037 352.451C819.773 351.965 819.34 351.591 818.82 351.4H818.8ZM388.88 675.92C408.14 695.37 433.88 707.25 465.48 711.39C450.897 713.383 436.199 714.412 421.48 714.47C315.16 714.47 259.68 656.47 256.41 541.93C285.12 549.12 317.41 556.38 349.14 560.17C349.91 611.13 363.21 650.05 388.88 675.92ZM651.58 333C494.48 333 397.05 373.84 369.82 451.1C366.74 459.79 360.72 478.29 357.05 490.66C348.45 488.82 341.45 487.37 335.55 486.17C326.14 484.28 319.55 483 313.71 481.9C299.65 479.21 291.44 478.53 261.3 470.06C261.414 469.668 261.488 469.266 261.52 468.86C262.62 462.68 264.21 453.35 265.34 448.15C265.359 447.953 265.4 447.758 265.46 447.57C265.46 447.4 265.46 447.29 265.55 447.14C265.64 446.68 265.74 446.27 265.82 445.9C265.9 445.53 265.95 445.32 266.02 445.09V444.83C295.77 339.66 432.39 317.74 541.77 317.74C607.84 317.74 673.47 325.8 725.77 335.9C703 334.29 677.81 333 651.58 333ZM265.94 445.77C265.974 445.473 266.028 445.18 266.1 444.89V445.13C266.1 445.2 266 445.5 265.94 445.77ZM265.94 445.94V445.77V446.17C265.934 446.092 265.92 446.015 265.9 445.94H265.94Z" fill="white"/>
</g>
<defs>
<clipPath id="clip0_3_47">
<rect width="1024" height="1024" fill="white"/>
</clipPath>
</defs>
</svg>

<svg xmlns="http://www.w3.org/2000/svg" width="1024" height="1024" fill="none">
   <g clip-path="url(#a)">
      <path fill="#98DC9A" d="M512 1024c282.77 0 512-229.23 512-512S794.77 0 512 0 0 229.23 0 512s229.23 512 512 512Z"/>
      <path fill="#fff" d="M781.8 444.89c-17.71-3.48-45.69-6.44-76.48-6.44-68.91 0-151.51 14.78-162.5 71.7-.4 2.14-1.22 12.93-1.45 15 6.28 1 10.91 1.77 14.49 2.3a71.338 71.338 0 0 0-.69 8.6c-.09 5.25 0 10.19.27 14.88-4.43-.58-9-1.22-13.57-1.91 5.55 58.88 37.94 75.7 71.83 76.44h2.38c21.41 0 43.19-6.17 59-12a2.268 2.268 0 0 0 .521-4.031 2.27 2.27 0 0 0-1.601-.359c-31.21 4.23-79.79-1.09-69-79.38 9-64.78 132.7-77.72 176.43-80.28a2.275 2.275 0 0 0 1.533-.618 2.277 2.277 0 0 0-1.193-3.912l.03.01ZM620.31 617c-1.41.05-2.84.08-4.23.08-36.69 0-57.79-19-64.4-58.07a327.551 327.551 0 0 0 32.78 3.06c4.54 32.06 19.78 47.63 35.85 54.93Zm-31.43-109c-.82 3.14-2.15 8.8-3.25 13.79-7.47-.77-11.38-1-14.68-1.18a163.938 163.938 0 0 1-20.47-2.46c.24-2.69.51-5.54.65-6.33 8.82-45.6 84.91-63.42 125.59-63.42-38.6 9.01-79.19 26.52-87.84 59.54v.06ZM786 398.17c-25.8-6-72.45-11.56-124.2-11.56-104.27 0-229.32 22.46-246 108.56-.59 3.25-1.89 19.57-2.2 22.74 9.54 1.34 16.13 2.26 21.76 2.93a107.3 107.3 0 0 0-.86 11.37c-.16 8.79 0 17 .55 24.74-6.7-.9-13.573-1.883-20.62-2.95 8.6 91.38 59.7 116 112.2 116a195.958 195.958 0 0 0 25.74-1.81c29.79-3.1 58.63-13.44 77.43-21.5a2.282 2.282 0 0 0 1.27-2.765 2.279 2.279 0 0 0-2.61-1.565C584 651.1 491.87 654 510.07 522.65c14.19-102.59 218.66-117.74 275.5-120a2.28 2.28 0 0 0 .44-4.52l-.01.04Zm-232.06 261.3a188.433 188.433 0 0 1-27.31 2.11c-58.93 0-93.37-32.82-102.53-97.58a517.57 517.57 0 0 0 58.61 5.51c7.39 60.88 39.11 83.41 71.23 89.96Zm-64.12-166.56c-1.48 5.68-4 16.36-5.74 24.5-14.19-1.57-23-2.43-30.3-3.14-10.55-1-17.05-1.67-31-3.62.46-5.27 1.1-12.32 1.34-13.88C441.88 405 596.29 395.05 661.85 395.05c5.047 0 10 .05 14.86.15-79.92 7.52-169.47 31.14-186.89 97.71Zm-224.33-45.33c.05-.26.1-.51.16-.75l-.08.35a.75.75 0 0 1-.08.4Zm0 0-.08.39c.017-.121.041-.241.07-.36l.01-.03Zm-1.72 8.93c-.35 1.91-.7 3.84-1 5.71.29-1.87.64-3.81.99-5.69l.01-.02Zm.27-1.44c.34-1.8.66-3.55 1-5.05-.35 1.54-.67 3.27-1.04 5.07l.04-.02Zm-.27 1.46c-.35 1.88-.7 3.82-1 5.71.29-1.86.64-3.8.99-5.68l.01-.03ZM265 450c-.31 1.51-.63 3.25-1 5.05.37-1.76.69-3.49 1-5.05Zm553.8-98.6C771.75 333.33 656.31 309 541.85 309 413.94 309 287.13 339.35 258 442.45c-1.34 4.76-5.38 29.23-6.37 33.95 13.86 3.56 23.71 6 31.43 7.82-.94 4.76-1.76 9.6-2.31 14.62-1.53 14.07-2.37 27.21-2.69 39.66a1349.755 1349.755 0 0 1-30.32-7.5c0 154.31 88 191.93 173.71 191.93a331.356 331.356 0 0 0 36.55-2.08c38.42-4.23 75.92-15 99.35-22.85a2.277 2.277 0 0 0 1.524-2.672 2.282 2.282 0 0 0-2.524-1.758c-61.82 7.63-210.75 6.06-164.18-198.48 36-158 355.53-144.24 425.65-139.28a2.277 2.277 0 0 0 2.437-1.766 2.28 2.28 0 0 0-1.437-2.644h-.02ZM388.88 675.92c19.26 19.45 45 31.33 76.6 35.47a334.679 334.679 0 0 1-44 3.08c-106.32 0-161.8-58-165.07-172.54 28.71 7.19 61 14.45 92.73 18.24.77 50.96 14.07 89.88 39.74 115.75ZM651.58 333c-157.1 0-254.53 40.84-281.76 118.1-3.08 8.69-9.1 27.19-12.77 39.56-8.6-1.84-15.6-3.29-21.5-4.49-9.41-1.89-16-3.17-21.84-4.27-14.06-2.69-22.27-3.37-52.41-11.84a5.98 5.98 0 0 0 .22-1.2c1.1-6.18 2.69-15.51 3.82-20.71.019-.197.06-.392.12-.58 0-.17 0-.28.09-.43.09-.46.19-.87.27-1.24.08-.37.13-.58.2-.81v-.26c29.75-105.17 166.37-127.09 275.75-127.09 66.07 0 131.7 8.06 184 18.16-22.77-1.61-47.96-2.9-74.19-2.9ZM265.94 445.77c.034-.297.088-.59.16-.88v.24c0 .07-.1.37-.16.64Zm0 .17v-.17.4a1.272 1.272 0 0 0-.04-.23h.04Z"/>
   </g>
   <defs>
      <clipPath id="a">
         <path fill="#fff" d="M0 0h1024v1024H0z"/>
      </clipPath>
   </defs>
</svg>
